svgs/materials/action/swipe_up.svg

<svg xmlns="http://www.w3.org/2000/svg" enable-background="new 0 0 24 24" height="24" viewBox="0 0 24 24" width="24"><g><rect fill="none" height="24" width="24"/></g><g><path d="M2.06,5.56L1,4.5L4.5,1L8,4.5L6.94,5.56L5.32,3.94C5.11,4.76,5,5.62,5,6.5c0,2.42,0.82,4.65,2.2,6.43L6.13,14 C4.49,11.95,3.5,9.34,3.5,6.5c0-0.92,0.1-1.82,0.3-2.68L2.06,5.56z M13.85,11.62l-2.68-5.37c-0.37-0.74-1.27-1.04-2.01-0.67 C8.41,5.96,8.11,6.86,8.48,7.6l4.81,9.6L10.05,18c-0.33,0.09-0.59,0.33-0.7,0.66L9,19.78l6.19,2.25c0.5,0.17,1.28,0.02,1.75-0.22 l5.51-2.75c0.89-0.45,1.32-1.48,1-2.42l-1.43-4.27c-0.27-0.82-1.04-1.37-1.9-1.37h-4.56c-0.31,0-0.62,0.07-0.89,0.21L13.85,11.62"/></g></svg>

<?xml version="1.0" encoding="UTF-8" standalone="no"?>
<svg
   enable-background="new 0 0 24 24"
   height="24"
   viewBox="0 0 24 24"
   width="24"
   version="1.1"
   id="svg10"
   sodipodi:docname="swipe_up.svg"
   inkscape:version="1.2 (dc2aeda, 2022-05-15)"
   xmlns:inkscape="http://www.inkscape.org/namespaces/inkscape"
   xmlns:sodipodi="http://sodipodi.sourceforge.net/DTD/sodipodi-0.dtd"
   xmlns="http://www.w3.org/2000/svg"
   xmlns:svg="http://www.w3.org/2000/svg">
  <defs
     id="defs14" />
  <sodipodi:namedview
     id="namedview12"
     pagecolor="#ffffff"
     bordercolor="#000000"
     borderopacity="0.25"
     inkscape:showpageshadow="2"
     inkscape:pageopacity="0.0"
     inkscape:pagecheckerboard="0"
     inkscape:deskcolor="#d1d1d1"
     showgrid="false"
     inkscape:zoom="9.8333333"
     inkscape:cx="8.2372881"
     inkscape:cy="12"
     inkscape:window-width="1309"
     inkscape:window-height="456"
     inkscape:window-x="0"
     inkscape:window-y="25"
     inkscape:window-maximized="0"
     inkscape:current-layer="svg10" />
  <path
     id="rect2"
     style="fill:none"
     d="M 0,0 H 24 V 24 H 0 Z" />
  <path
     d="M 2.06,5.56 1,4.5 4.5,1 8,4.5 6.94,5.56 5.32,3.94 C 5.11,4.76 5,5.62 5,6.5 5,8.92 5.82,11.15 7.2,12.93 L 6.13,14 C 4.49,11.95 3.5,9.34 3.5,6.5 3.5,5.58 3.6,4.68 3.8,3.82 Z M 13.85,11.62 11.17,6.25 C 10.8,5.51 9.9,5.21 9.16,5.58 8.41,5.96 8.11,6.86 8.48,7.6 l 4.81,9.6 -3.24,0.8 c -0.33,0.09 -0.59,0.33 -0.7,0.66 L 9,19.78 l 6.19,2.25 c 0.5,0.17 1.28,0.02 1.75,-0.22 l 5.51,-2.75 c 0.89,-0.45 1.32,-1.48 1,-2.42 L 22.02,12.37 C 21.75,11.55 20.98,11 20.12,11 h -4.56 c -0.31,0 -0.62,0.07 -0.89,0.21 l -0.82,0.41"
     id="path6" />
</svg>
